X: 9028
T: Da Burn O Couster
R: slip jig
M: 9/8
K: Amajor
|:A2 c edc BcA|ABA EFA B2c|[M:6/8] Ace dcB|
[M:9/8] A2 c edc BcA|ABc edc dcB:|
c3 Bc(A A)GF|(E3 E)AE BEc|[M:6/8] cdc BAF|
[M:9/8] c3 Bc(A A)GF|E2D CDE Aed||
c3 Bc(A A)GF|(E3 E)AE BEc|[M:6/8] cdc BAF|
[M:9/8] c3 Bce edc|[M:6/8] BAF EFA|[M:9/8] Bce cBA a3||

